static/images/community.svg

<?xml version="1.0" encoding="UTF-8"?>
<svg width="273px" height="146px" viewBox="0 0 273 146" version="1.1" xmlns="http://www.w3.org/2000/svg" xmlns:xlink="http://www.w3.org/1999/xlink">
    <!-- Generator: Sketch 64 (93537) - https://sketch.com -->
    <title>Comminity Groups</title>
    <desc>Created with Sketch.</desc>
    <defs>
        <rect id="path-1" x="0" y="0" width="273" height="146" rx="8"></rect>
    </defs>
    <g id="Comminity-Groups" stroke="none" stroke-width="1" fill="none" fill-rule="evenodd">
        <g>
            <mask id="mask-2" fill="white">
                <use xlink:href="#path-1"></use>
            </mask>
            <use id="Rectangle-3-Copy-11" fill="#F7D0BD" xlink:href="#path-1"></use>
            <path d="M38.8628376,27 L33,44.1232653 C37.1986062,54.5795614 42.0298407,58.9684008 47.4937034,57.2897834 C52.9575662,55.611166 58.7839304,47.2933846 64.9727963,32.3364391 L38.8628376,27 Z" id="Path-3" fill="#C47A42" mask="url(#mask-2)"></path>
            <polygon id="Path-2" fill="#014A7F" mask="url(#mask-2)" points="213.931284 23 194 38.4474062 200.788334 70.406211 242.541976 44.7127221"></polygon>
            <path d="M116.52384,52.7018157 C101.50978,46.0408376 95.6226884,48.3690892 98.8625643,59.6865707 C103.722378,76.6627928 136.114425,78.5906296 133.890707,70.0482198 C132.408229,64.3532799 126.619273,58.5711452 116.52384,52.7018157 Z" id="Path-8-Copy" fill="#375E34" mask="url(#mask-2)" transform="translate(116.000000, 62.000000) rotate(-67.000000) translate(-116.000000, -62.000000) "></path>
            <path d="M45.3520691,70.4780893 C25.0435972,68.2396259 19.2220362,73.8616999 27.8873862,87.3443113 C40.8854111,107.568228 36.8420557,122 53.0845625,122 C69.3270693,122 97,105.250133 97,93.6904035 C97,85.9839174 79.784023,78.2464794 45.3520691,70.4780893 Z" id="Path-10-Copy" fill="#F8F4E9" mask="url(#mask-2)"></path>
            <path d="M76.6003665,45.5526198 C74.8476196,54.2124327 76.9326806,58.5423391 82.8555494,58.5423391 C91.7398526,58.5423391 92.124953,38.272695 116.557237,31.0463653 C140.98952,23.8200356 161.382539,53.5045444 151.18603,71.3301386 C140.98952,89.1557328 154.689566,89 162.402185,89 C170.114803,89 201.084984,57.2704464 181.743585,35.3605373 C162.402185,13.4506282 135.552672,12.6735641 122.238141,13.0620962 C113.361787,13.3211175 98.1491956,24.1512921 76.6003665,45.5526198 Z" id="Path-12-Copy" fill="#B6C3CE" mask="url(#mask-2)"></path>
            <path d="M192.043107,109.242334 C231.956095,136.59193 250.128681,139.290479 246.560864,117.33798 C241.209139,84.4092309 202.016161,54.7236461 184.276791,74.2108076 C172.450545,87.2022485 175.039317,98.8794238 192.043107,109.242334 Z" id="Path-9-Copy" fill="#E1BA15" mask="url(#mask-2)" transform="translate(212.000000, 100.000000) rotate(-59.000000) translate(-212.000000, -100.000000) "></path>
            <polygon id="Path-11-Copy" fill="#DB500F" mask="url(#mask-2)" points="101 118.86607 142.606345 130 163 117.016669 134.380641 88"></polygon>
        </g>
    </g>
</svg>

<svg width="273" height="146" xmlns="http://www.w3.org/2000/svg" xmlns:xlink="http://www.w3.org/1999/xlink"><defs><rect id="a" x="0" y="0" width="273" height="146" rx="8"/></defs><g fill="none" fill-rule="evenodd"><mask id="b" fill="#fff"><use xlink:href="#a"/></mask><use fill="#F7D0BD" xlink:href="#a"/><path d="M38.86 27L33 44.12c4.2 10.46 9.03 14.85 14.5 13.17 5.46-1.68 11.28-10 17.47-24.95L38.87 27z" fill="#C47A42" mask="url(#b)"/><path fill="#014A7F" mask="url(#b)" d="M213.93 23L194 38.45l6.79 31.96 41.75-25.7z"/><path d="M116.52 52.7c-15.01-6.66-20.9-4.33-17.66 6.99 4.86 16.97 37.25 18.9 35.03 10.36-1.48-5.7-7.27-11.48-17.37-17.35z" fill="#375E34" mask="url(#b)" transform="rotate(-67 116 62)"/><path d="M45.35 70.48c-20.3-2.24-26.13 3.38-17.46 16.86 13 20.23 8.95 34.66 25.2 34.66C69.32 122 97 105.25 97 93.69c0-7.7-17.22-15.44-51.65-23.21z" fill="#F8F4E9" mask="url(#b)"/><path d="M76.6 45.55c-1.75 8.66.33 13 6.26 13 8.88 0 9.26-20.28 33.7-27.5 24.43-7.23 44.82 22.45 34.63 40.28C140.99 89.16 154.69 89 162.4 89c7.71 0 38.68-31.73 19.34-53.64-19.34-21.9-46.19-22.69-59.5-22.3-8.88.26-24.1 11.1-45.64 32.5z" fill="#B6C3CE" mask="url(#b)"/><path d="M192.04 109.24c39.92 27.35 58.09 30.05 54.52 8.1-5.35-32.93-44.54-62.62-62.28-43.13-11.83 13-9.24 24.67 7.76 35.03z" fill="#E1BA15" mask="url(#b)" transform="rotate(-59 212 100)"/><path fill="#DB500F" mask="url(#b)" d="M101 118.87L142.6 130l20.4-12.98L134.38 88z"/></g></svg>
